X: 091
T: Miss Rickaby's Reel
C: Abraham Mackintosh
R: reel
M: C|
L: 1/8
Z: 2011 John Chambers <jc:trillian.mit.edu>
B: Abraham Mackintosh "A Collection of Strathspeys, Reels, Jigs &c.", Newcastle, after 1797, p.9
F: http://imslp.info/files/imglnks/usimg/a/a8/IMSLP80796-PMLP164326-Abraham_Mackintosh_coll.pdf
K: Am
V: 1
   e | c/B/A eA BGdB | c/B/A eA aAeA | c/B/A eA BGdB | ABcd eaa :|
|: e | a^gae cecA | g^fgd BdBG | ABcd eagf | edcB cAA :|
V: 2 clef=bass middle=d
   z | a2a2 g2g2 | a2a2 a2a2 | a2a2 g2g2 | a3b c'2a :|
|: z | a2a2 a2a2 | g2g2 g2g2 | cBAB c2d2 | e2E2 a2A :|

%%sep 2 1 500

